X:2359
T:Churnal Jiu as churnal Jea
C:Mrs Faragher, Kirk Michael 1919.
C:Traditional
O:Isle of Man 
Z:Collected by Mona Douglas
B:Kiaull Vannin #359
L:1/4
M:6/8
K:G 
Bd/ GA/|Bc/ dd/|de/ dB/|A3/2 dd/|GG/ GA/|Bc/ dd/|de/ (d/B/)G/| A3/2 Gd/|
ec/ ce/|dB/2 GB/|AG/ FA/|D3/2 DD/|GA/ (Bc/)|dB/ GF/|EG/ cB/|A3/2Gz/|| 

